frontend/public/svg/interface/maximize.svg

<svg width="158" height="156" viewBox="0 0 158 156" fill="none" xmlns="http://www.w3.org/2000/svg">
<g clip-path="url(#clip0)">
<path d="M106.987 153.403C109.085 153.82 111.21 154.083 113.345 154.188C114.534 154.249 115.721 154.313 116.909 154.378C122.286 154.669 127.845 154.968 133.323 155C133.608 155 133.894 155 134.179 155C139.275 155 144.581 154.744 149.962 154.238C154.983 153.766 156.328 152.342 156.499 147.315C156.866 136.59 157.133 125.683 157.391 115.136L157.534 109.327C157.551 108.273 157.439 107.221 157.202 106.194C156.648 103.716 155.01 102.164 152.823 102.047C151.715 101.988 150.621 102.32 149.733 102.985C148.844 103.65 148.215 104.606 147.957 105.687C147.477 107.453 147.225 109.275 147.208 111.106C147.143 116.409 147.145 121.798 147.147 127.011C147.147 128.825 147.147 130.639 147.147 132.452C147.147 135.106 147.147 137.76 147.147 140.495V143.828L146.823 143.908C146.567 143.985 146.305 144.038 146.039 144.065C144.674 144.125 143.309 144.191 141.944 144.26C138.283 144.438 134.498 144.622 130.778 144.678C126.691 144.743 122.535 144.722 118.513 144.703C116.057 144.691 113.601 144.679 111.148 144.686C109.772 144.645 108.396 144.744 107.041 144.982C104.694 145.477 103.194 147.091 103.127 149.194C103.093 150.47 103.54 152.703 106.987 153.403Z" fill="black"/>
<path d="M43.5594 144.772C36.5528 144.669 29.4292 144.642 22.5394 144.616C20.3336 144.607 18.1279 144.598 15.9221 144.588C14.8069 144.584 13.6916 144.584 12.4908 144.588H11.3152C11.2925 144.365 11.2705 144.159 11.2504 143.966C11.1855 143.341 11.1323 142.848 11.1161 142.374C10.9565 137.768 10.7994 133.163 10.645 128.558C10.4332 122.28 10.2182 116.003 10.0002 109.724C9.98376 108.249 9.85933 106.778 9.62791 105.321C9.52749 104.557 9.16379 103.851 8.59963 103.327C8.03547 102.802 7.30613 102.492 6.53773 102.449C4.80683 102.311 3.48859 103.216 2.83983 104.996C2.60403 105.68 2.45916 106.392 2.40901 107.113L2.32997 108.005C2.17946 109.683 2.02441 111.418 1.97835 113.14C1.63191 125.986 1.34178 137.653 1.09201 148.808C1.00767 152.553 3.21355 154.951 7.14309 155.389C8.42401 155.508 9.71044 155.556 10.9967 155.534C11.3976 155.534 11.798 155.534 12.1982 155.54L17.9677 155.61C26.6572 155.716 35.6418 155.825 44.4805 155.87H44.5221C45.9209 155.834 47.2997 155.528 48.5827 154.967C49.5332 154.641 50.3586 154.024 50.9444 153.206C51.5302 152.388 51.8473 151.407 51.852 150.4C51.8566 149.393 51.5484 148.41 50.9702 147.585C50.392 146.762 49.5723 146.139 48.6248 145.802C47.0102 145.162 45.2953 144.813 43.5594 144.772Z" fill="black"/>
<path d="M5.74158 55.6845H5.84596C8.02709 55.6845 9.76324 54.0335 10.3919 51.3509C10.5408 50.652 10.6167 49.9395 10.6188 49.2248C10.6298 48.6398 10.6448 48.0547 10.659 47.4697C10.7051 45.6308 10.7526 43.7298 10.6832 41.8533C10.4868 36.5753 10.2723 31.298 10.0396 26.0213C9.87742 22.1871 9.71841 18.352 9.5627 14.5162C9.51664 13.3416 9.52832 12.1541 9.54129 10.897C9.54519 10.496 9.54901 10.0876 9.55161 9.66969C10.105 9.66644 10.6422 9.65877 11.167 9.65162C12.6592 9.62952 14.0741 9.61041 15.4592 9.68841C25.2451 10.2403 33.4774 10.4035 41.8496 9.38818C43.3622 9.2249 44.829 8.77042 46.1696 8.04976C46.731 7.74303 47.201 7.29277 47.5321 6.74469C47.8632 6.19665 48.0435 5.57045 48.0544 4.92992C48.0572 4.27537 47.887 3.63188 47.561 3.06466C47.2349 2.49744 46.7647 2.02687 46.1982 1.70086C45.0503 1.06602 43.7788 0.687687 42.4711 0.591928C41.0894 0.49185 39.7029 0.472504 38.319 0.534482C37.9038 0.544882 37.4886 0.555926 37.074 0.561776C31.1643 0.648443 25.2544 0.736775 19.3446 0.826475L5.78561 1.02992C3.56361 1.06307 2.28234 2.10365 1.87103 4.21485C1.54881 5.78135 1.37184 7.37454 1.34233 8.97367C1.23723 19.6792 1.15539 31.446 1.08273 46.004C1.0427 47.7067 1.13294 49.4098 1.35262 51.0986C1.77821 53.9138 3.41772 55.6286 5.74158 55.6845Z" fill="black"/>
<path d="M146.661 16.5952C146.485 18.7617 146.302 21.003 146.172 23.2137L145.995 26.1453C145.693 31.0775 145.383 36.1774 145.315 41.2045C145.322 43.41 145.85 45.5824 146.858 47.5432C147.158 48.2103 147.636 48.782 148.239 49.1959C148.841 49.6098 149.545 49.8499 150.275 49.8903H150.328C151.065 49.8588 151.779 49.6285 152.395 49.2238C153.012 48.8191 153.508 48.2551 153.832 47.5912C154.875 45.6688 155.509 43.5499 155.692 41.3689C156.645 29.8028 156.043 18.0688 155.461 6.7237L155.391 5.34247C155.261 2.85232 153.95 1.24777 151.591 0.698522C149.82 0.24206 147.998 0.0211604 146.171 0.0418577C136.86 0.341508 127.037 0.730119 115.258 1.26442C113.865 1.3607 112.496 1.66924 111.196 2.17911C110.475 2.43595 109.864 2.9347 109.468 3.59083C109.072 4.24696 108.914 5.02018 109.022 5.77951C109.02 6.5597 109.324 7.30941 109.867 7.86822C110.411 8.42702 111.151 8.75053 111.929 8.76957C112.325 8.81182 112.72 8.85986 113.115 8.90796C114.146 9.03276 115.212 9.16204 116.279 9.19324C118.723 9.26474 121.206 9.30381 123.61 9.34151C125.271 9.36751 126.93 9.39331 128.59 9.43036C132.912 9.52526 137.233 9.63186 141.715 9.74171L147.014 9.87184C147.014 10.0824 147.019 10.28 147.022 10.4685C147.033 11.1634 147.041 11.7119 147.003 12.2481C146.896 13.695 146.779 15.1451 146.661 16.5952Z" fill="black"/>
</g>
<defs>
<clipPath id="clip0">
<rect width="157" height="156" fill="white" transform="translate(0.777344)"/>
</clipPath>
</defs>
</svg>

<svg xmlns="http://www.w3.org/2000/svg" width="158" height="156" fill="none" viewBox="0 0 158 156"><g fill="#000" clip-path="url(#a)"><path d="M106.987 153.403a43.6 43.6 0 0 0 6.358.785q1.783.092 3.564.19c5.377.291 10.936.59 16.414.622h.856c5.096 0 10.402-.256 15.783-.762 5.021-.472 6.366-1.896 6.537-6.923.367-10.725.634-21.632.892-32.179l.143-5.809a13 13 0 0 0-.332-3.133c-.554-2.478-2.192-4.03-4.379-4.147a4.74 4.74 0 0 0-3.09.938 4.75 4.75 0 0 0-1.776 2.702 21.4 21.4 0 0 0-.749 5.419c-.065 5.303-.063 10.692-.061 15.905v16.817l-.324.08q-.385.116-.784.157-2.047.09-4.095.195c-3.661.178-7.446.362-11.166.418-4.087.065-8.243.044-12.265.025-2.456-.012-4.912-.024-7.365-.017a20.3 20.3 0 0 0-4.107.296c-2.347.495-3.847 2.109-3.914 4.212-.034 1.276.413 3.509 3.86 4.209m-63.427-8.631c-7.007-.103-14.13-.13-21.02-.156l-6.618-.028c-1.115-.004-2.23-.004-3.431 0h-1.176q-.033-.334-.065-.622c-.065-.625-.118-1.118-.134-1.592q-.24-6.909-.471-13.816-.318-9.416-.645-18.834a30 30 0 0 0-.372-4.403 3.3 3.3 0 0 0-1.028-1.994 3.3 3.3 0 0 0-2.062-.878c-1.731-.138-3.05.767-3.698 2.547a8.3 8.3 0 0 0-.431 2.117l-.079.892c-.15 1.678-.306 3.413-.352 5.135a7757 7757 0 0 0-.886 35.668c-.084 3.745 2.122 6.143 6.051 6.581q1.923.178 3.854.145.6-.001 1.201.006l5.77.07c8.69.106 17.674.215 26.513.26h.041a10.8 10.8 0 0 0 4.06-.903 4.84 4.84 0 0 0 2.362-1.761 4.86 4.86 0 0 0-2.32-7.404 14.7 14.7 0 0 0-5.065-1.03M5.742 55.685h.104c2.181 0 3.917-1.652 4.546-4.334a10.4 10.4 0 0 0 .227-2.126q.017-.877.04-1.755c.046-1.84.094-3.74.024-5.617q-.294-7.917-.643-15.832-.244-5.751-.477-11.505c-.046-1.174-.035-2.362-.022-3.619q.006-.601.01-1.227.83-.007 1.616-.018c1.492-.022 2.907-.042 4.292.036 9.786.552 18.018.715 26.39-.3a11.8 11.8 0 0 0 4.32-1.338 3.62 3.62 0 0 0 1.885-3.12 3.71 3.71 0 0 0-1.856-3.23A9.1 9.1 0 0 0 42.471.593Q40.396.442 38.32.534c-.415.01-.83.022-1.245.028q-8.865.13-17.73.264L5.787 1.03c-2.222.033-3.504 1.074-3.915 3.185-.322 1.566-.5 3.16-.529 4.759a7643 7643 0 0 0-.26 37.03c-.04 1.703.05 3.406.27 5.095.426 2.815 2.066 4.53 4.39 4.586m140.918-39.09c-.176 2.167-.359 4.408-.489 6.619l-.177 2.931c-.302 4.933-.612 10.032-.68 15.06a13.96 13.96 0 0 0 1.543 6.338 3.99 3.99 0 0 0 3.417 2.347h.053a4.1 4.1 0 0 0 3.504-2.3 15.8 15.8 0 0 0 1.86-6.221c.953-11.566.351-23.3-.231-34.645l-.07-1.382c-.13-2.49-1.441-4.094-3.8-4.643a20.8 20.8 0 0 0-5.42-.657c-9.311.3-19.134.688-30.913 1.222a13.7 13.7 0 0 0-4.062.915 3.32 3.32 0 0 0-2.174 3.6 2.98 2.98 0 0 0 2.907 2.99q.594.065 1.186.139c1.031.125 2.097.254 3.164.285 2.444.072 4.927.11 7.331.149 1.661.026 3.32.051 4.98.088 4.322.095 8.643.202 13.125.312l5.299.13q.002.314.008.597c.011.694.019 1.243-.019 1.78a592 592 0 0 1-.342 4.346"/></g><defs><clipPath id="a"><path fill="#fff" d="M.777 0h157v156h-157z"/></clipPath></defs></svg>
